images_breeze_svg/cmd/sc_zoompage.svg

<svg viewBox="0 0 16 16" xmlns="http://www.w3.org/2000/svg">
/&amp;gt;<path d="m2 2v3h1v-2h2v-1h-2zm6 0-2 2h4zm3 0v1h2v2h1v-3h-1zm-5 3v6h2.5l1.5-2v-1-3zm-2 1-2 2 2 2zm3 0h2v3h-.5v1h-1.5zm5 0v4l2-2zm-10 5v3h1 2v-1h-2v-2zm11 0v2h-2v1h3v-1-2zm-7 1 2 2 2-2z" fill="#4d4d4d"/></svg>

<?xml version="1.0" encoding="UTF-8" standalone="no"?>
<svg
   xmlns:dc="http://purl.org/dc/elements/1.1/"
   xmlns:cc="http://creativecommons.org/ns#"
   xmlns:rdf="http://www.w3.org/1999/02/22-rdf-syntax-ns#"
   xmlns:svg="http://www.w3.org/2000/svg"
   xmlns="http://www.w3.org/2000/svg"
   xmlns:sodipodi="http://sodipodi.sourceforge.net/DTD/sodipodi-0.dtd"
   xmlns:inkscape="http://www.inkscape.org/namespaces/inkscape"
   viewBox="0 0 16 16"
   version="1.1"
   id="svg4"
   sodipodi:docname="sc_zoompage.svg"
   inkscape:version="0.92.4 (unknown)"
   inkscape:export-filename="/home/rizmut/Dokumen/Rizmut/Github/libreoffice-style-breeze/images_breeze/cmd/sc_zoompage.png"
   inkscape:export-xdpi="96"
   inkscape:export-ydpi="96"><metadata
   id="metadata10">
  <rdf:RDF>
    <cc:Work
       rdf:about="">
      <dc:format>image/svg+xml</dc:format>
      <dc:type
         rdf:resource="http://purl.org/dc/dcmitype/StillImage" />
    </cc:Work>
  </rdf:RDF>
</metadata>
<defs
   id="defs8" />
<sodipodi:namedview
   pagecolor="#ffffff"
   bordercolor="#666666"
   borderopacity="1"
   objecttolerance="10"
   gridtolerance="10"
   guidetolerance="10"
   inkscape:pageopacity="0"
   inkscape:pageshadow="2"
   inkscape:window-width="1360"
   inkscape:window-height="714"
   id="namedview6"
   showgrid="true"
   inkscape:zoom="29.5"
   inkscape:cx="0.7058331"
   inkscape:cy="9.1286851"
   inkscape:window-x="0"
   inkscape:window-y="28"
   inkscape:window-maximized="1"
   inkscape:current-layer="svg4">
  <inkscape:grid
     type="xygrid"
     id="grid817" />
</sodipodi:namedview>
/&gt;<path
   d="M 2,2 V 5 H 3 V 3 H 5 V 2 H 3 Z M 8,2 6,4 h 4 z m 3,0 v 1 h 2 v 2 h 1 V 2 H 13 Z M 6,5 v 6 H 8.5 L 10,9 V 8 5 Z M 4,6 2,8 4,10 Z M 7,6 H 9 V 9 H 8.5 v 1 H 7 Z m 5,0 v 4 L 14,8 Z M 2,11 v 3 H 3 5 V 13 H 3 v -2 z m 11,0 v 2 h -2 v 1 h 3 v -1 -2 z m -7,1 2,2 2,-2 z"
   id="path2"
   inkscape:connector-curvature="0"
   style="fill:#4d4d4d"
   sodipodi:nodetypes="cccccccccccccccccccccccccccccccccccccccccccccccccccccccccccccc" />
</svg>
